src/icons/thumb-up.svg

<svg xmlns="http://www.w3.org/2000/svg" width="8" height="8" viewBox="0 0 8 8">
  <path d="M4.47 0c-.19.02-.37.15-.47.34-.13.26-1.09 2.19-1.28 2.38-.19.19-.44.28-.72.28v4h3.5c.21 0 .39-.13.47-.31 0 0 1.03-2.91 1.03-3.19 0-.28-.22-.5-.5-.5h-1.5c-.28 0-.5-.25-.5-.5s.39-1.58.47-1.84c.08-.26-.05-.54-.31-.63-.07-.02-.12-.04-.19-.03zm-4.47 3v4h1v-4h-1z"
  />
</svg>

<svg xmlns="http://www.w3.org/2000/svg" viewBox="0 0 8 8"><path d="M4.47 0C4.28.02 4.1.15 4 .34 3.87.6 2.91 2.53 2.72 2.72 2.53 2.91 2.28 3 2 3v4h3.5c.21 0 .39-.13.47-.31C5.97 6.69 7 3.78 7 3.5c0-.28-.22-.5-.5-.5H5c-.28 0-.5-.25-.5-.5S4.89.92 4.97.66a.504.504 0 0 0-.31-.63C4.59.01 4.54-.01 4.47 0zM0 3v4h1V3H0z"/></svg>
